src/img/categories/category-1.svg

<svg width="157" height="124" viewBox="0 0 157 124" fill="none" xmlns="http://www.w3.org/2000/svg">
<rect y="74.8792" width="148.517" height="56" rx="28" transform="rotate(-30 0 74.8792)" fill="url(#paint0_linear)"/>
<path d="M96.8 50.7936C96.8002 49.614 97.0747 48.4504 97.6018 47.3951L101.867 38.8667H85.4L81.1351 47.3951C80.608 48.4504 80.3335 49.614 80.3333 50.7936V61.6667H72.7333V50.7936C72.7335 49.614 73.008 48.4504 73.5351 47.3951L77.8 38.8667H61.3333L57.0685 47.3951C56.5414 48.4504 56.2668 49.614 56.2667 50.7936V104.733H96.8V50.7936ZM81.9078 87.3078C77.4555 91.7589 71.4401 92.9622 68.4723 89.9944C65.5045 87.0266 66.7078 81.0112 71.1589 76.5589C75.6099 72.1065 81.6266 70.9045 84.5944 73.8723C87.5622 76.8401 86.3589 82.8555 81.9078 87.3078Z" fill="#C49A6C"/>
<path d="M96.8 50.7936V104.733H106.933V50.7936C106.933 49.614 106.659 48.4504 106.132 47.3951L101.867 38.8667L97.6018 47.3951C97.0747 48.4504 96.8001 49.614 96.8 50.7936Z" fill="#A97C50"/>
<path d="M61.3333 31.2667H77.8V38.8667H61.3333V31.2667Z" fill="#C49A6C"/>
<path d="M85.4 31.2667H101.867V38.8667H85.4V31.2667Z" fill="#C49A6C"/>
<path d="M73.5351 47.3952C73.008 48.4505 72.7335 49.614 72.7333 50.7936V61.6667H80.3333V50.7936C80.3335 49.614 80.608 48.4505 81.1351 47.3952L85.4 38.8667V31.2667H77.8V38.8667L73.5351 47.3952Z" fill="#F59E27"/>
<path d="M68.4722 89.9944C71.44 92.9622 77.4554 91.7589 81.9078 87.3078C86.3601 82.8567 87.5621 76.8401 84.5943 73.8723L68.4722 89.9944Z" fill="#754C29"/>
<path d="M71.1589 76.5589C66.7078 81.0112 65.5045 87.0266 68.4723 89.9944L84.5944 73.8723C81.6266 70.9045 75.6112 72.1078 71.1589 76.5589Z" fill="#754C29"/>
<path d="M107.264 46.829L103.133 38.5678V31.2667C103.133 30.5672 102.566 30.0001 101.867 30.0001H61.3333C60.6338 30.0001 60.0667 30.5672 60.0667 31.2667V38.5678L55.9361 46.829C55.3216 48.0608 55.0013 49.4184 55 50.7949V104.733C55 105.433 55.5671 106 56.2667 106H106.933C107.633 106 108.2 105.433 108.2 104.733V50.7949C108.199 49.4184 107.878 48.0608 107.264 46.829ZM100.6 37.6001H86.6667V32.5334H100.6V37.6001ZM84.1333 38.5678L80.0027 46.829C79.3882 48.0608 79.0679 49.4184 79.0667 50.7949V60.4001H74V50.7949C74.0016 49.8115 74.2304 48.8417 74.6688 47.9614L78.94 39.4329C78.9476 39.4177 78.9489 39.4013 78.9565 39.3861C78.9641 39.3709 78.9742 39.3303 78.9856 39.3025C79.0307 39.1805 79.0567 39.0523 79.0629 38.9225C79.0629 38.9047 79.073 38.8908 79.073 38.8731V32.5334H84.1397L84.1333 38.5678ZM62.6 32.5334H76.5333V37.6001H62.6V32.5334ZM96.4694 46.829C95.8549 48.0608 95.5346 49.4184 95.5333 50.7949V103.467H57.5333V50.7949C57.5349 49.8115 57.7637 48.8417 58.2021 47.9614L62.1161 40.1334H75.7505L72.4027 46.829C71.7882 48.0608 71.4679 49.4184 71.4667 50.7949V61.6667C71.4667 62.3662 72.0338 62.9334 72.7333 62.9334H80.3333C81.0329 62.9334 81.6 62.3662 81.6 61.6667V50.7949C81.6016 49.8115 81.8304 48.8417 82.2688 47.9614L86.1828 40.1334H99.8172L96.4694 46.829ZM105.667 103.467H98.0667V50.7949C98.0682 49.8115 98.297 48.8417 98.7355 47.9614L101.867 41.699L104.998 47.9614C105.436 48.8417 105.665 49.8115 105.667 50.7949V103.467Z" fill="#44220F"/>
<path d="M78.18 71.192C75.1607 71.8803 72.4078 73.4342 70.2583 75.6634C68.0318 77.8121 66.4798 80.5631 65.792 83.58C65.099 86.1599 65.772 88.9152 67.5767 90.8849C68.9699 92.2271 70.8466 92.9489 72.7802 92.8862C73.4876 92.8856 74.1933 92.8148 74.8867 92.6747C77.9059 91.9864 80.6589 90.4325 82.8084 88.2034C85.0349 86.0546 86.5869 83.3036 87.2747 80.2867C87.9677 77.7068 87.2946 74.9515 85.4899 72.9818C83.5207 71.1724 80.7624 70.4969 78.18 71.192ZM68.2747 84.0867C68.8659 81.5581 70.1791 79.2558 72.0544 77.4595C73.8513 75.5815 76.1557 74.2665 78.6867 73.6747C79.2112 73.568 79.7448 73.5129 80.2801 73.51C81.3003 73.4823 82.3041 73.7694 83.1555 74.3321C82.5988 74.7637 81.9939 75.1291 81.353 75.4214C78.7536 76.6773 76.6556 78.7754 75.3997 81.3748C74.9254 82.4315 74.2495 83.3853 73.4097 84.183C72.6112 85.0226 71.6571 85.699 70.6003 86.1742C69.8194 86.5361 69.0806 86.9829 68.3975 87.5067C68.0573 86.3973 68.0148 85.2177 68.2747 84.0867ZM84.792 79.78C84.2008 82.3086 82.8876 84.6109 81.0123 86.4072C79.2153 88.2852 76.9109 89.6002 74.38 90.192C72.8613 90.5898 71.2461 90.355 69.9036 89.541C70.4628 89.106 71.0707 88.7374 71.7149 88.4428C73.0193 87.8443 74.1996 87.0059 75.1945 85.9715C76.2322 84.9778 77.0731 83.7973 77.6733 82.492C78.6816 80.3942 80.3737 78.7021 82.4715 77.6938C83.2508 77.3314 83.9878 76.8841 84.6691 76.36C85.0094 77.4695 85.0518 78.649 84.792 79.78Z" fill="#44220F"/>
<defs>
<linearGradient id="paint0_linear" x1="1.87681" y1="107.012" x2="143.815" y2="101.991" gradientUnits="userSpaceOnUse">
<stop stop-color="#F59E27"/>
<stop offset="0.475947" stop-color="#F59E27" stop-opacity="0.621502"/>
<stop offset="0.855808" stop-color="#F59E27" stop-opacity="0.0780566"/>
<stop offset="1" stop-color="#F59E27" stop-opacity="0"/>
</linearGradient>
</defs>
</svg>

<svg width="157" height="124" fill="none" xmlns="http://www.w3.org/2000/svg"><rect y="74.879" width="148.517" height="56" rx="28" transform="rotate(-30 0 74.88)" fill="url(#paint0_linear)"/><path d="M96.8 50.794c0-1.18.275-2.344.802-3.399l4.265-8.528H85.4l-4.265 8.528a7.609 7.609 0 0 0-.802 3.399v10.873h-7.6V50.794c0-1.18.275-2.344.802-3.399l4.265-8.528H61.333l-4.264 8.528a7.608 7.608 0 0 0-.802 3.399v53.939H96.8v-53.94zM81.908 87.308c-4.453 4.45-10.468 5.654-13.436 2.686-2.968-2.967-1.764-8.983 2.687-13.435 4.45-4.453 10.468-5.654 13.435-2.687 2.968 2.968 1.765 8.984-2.686 13.436z" fill="#C49A6C"/><path d="M96.8 50.794v53.939h10.133v-53.94c0-1.179-.274-2.343-.801-3.398l-4.265-8.528-4.265 8.528a7.608 7.608 0 0 0-.802 3.399z" fill="#A97C50"/><path d="M61.333 31.267H77.8v7.6H61.333v-7.6zM85.4 31.267h16.467v7.6H85.4v-7.6z" fill="#C49A6C"/><path d="M73.535 47.395a7.608 7.608 0 0 0-.802 3.399v10.873h7.6V50.794c0-1.18.275-2.343.802-3.399l4.265-8.528v-7.6h-7.6v7.6l-4.265 8.528z" fill="#F59E27"/><path d="M68.472 89.994c2.968 2.968 8.983 1.765 13.436-2.686 4.452-4.451 5.654-10.468 2.686-13.436L68.472 89.994z" fill="#754C29"/><path d="M71.159 76.559c-4.451 4.452-5.655 10.468-2.687 13.435l16.122-16.122c-2.967-2.968-8.983-1.764-13.435 2.687z" fill="#754C29"/><path d="M107.264 46.829l-4.131-8.261v-7.301c0-.7-.567-1.267-1.266-1.267H61.333c-.7 0-1.266.567-1.266 1.267v7.3l-4.13 8.262A8.903 8.903 0 0 0 55 50.795v53.938c0 .7.567 1.267 1.267 1.267h50.666c.7 0 1.267-.567 1.267-1.267V50.795a8.906 8.906 0 0 0-.936-3.966zM100.6 37.6H86.667v-5.067H100.6V37.6zm-16.467.968l-4.13 8.261a8.902 8.902 0 0 0-.936 3.966V60.4H74v-9.605a6.38 6.38 0 0 1 .669-2.834l4.271-8.528c.008-.015.009-.032.017-.047.007-.015.017-.056.029-.084a1.27 1.27 0 0 0 .077-.38c0-.017.01-.031.01-.049v-6.34h5.067l-.007 6.035zM62.6 32.533h13.933V37.6H62.6v-5.067zM96.47 46.83a8.903 8.903 0 0 0-.937 3.966v52.672h-38V50.795a6.38 6.38 0 0 1 .67-2.834l3.913-7.828h13.635l-3.348 6.696a8.902 8.902 0 0 0-.936 3.966v10.872c0 .7.567 1.266 1.266 1.266h7.6c.7 0 1.267-.567 1.267-1.266V50.795a6.38 6.38 0 0 1 .669-2.834l3.914-7.828h13.634L96.47 46.83zm9.197 56.638h-7.6V50.795c.001-.983.23-1.953.669-2.834l3.131-6.262 3.131 6.262c.438.88.667 1.85.669 2.834v52.672z" fill="#44220F"/><path d="M78.18 71.192a15.92 15.92 0 0 0-7.922 4.471 15.92 15.92 0 0 0-4.466 7.917 7.813 7.813 0 0 0 1.785 7.305 7.165 7.165 0 0 0 5.203 2.001c.708 0 1.413-.071 2.107-.211a15.92 15.92 0 0 0 7.921-4.472 15.92 15.92 0 0 0 4.467-7.916 7.813 7.813 0 0 0-1.785-7.305 7.805 7.805 0 0 0-7.31-1.79zm-9.905 12.895a13.402 13.402 0 0 1 3.78-6.627 13.403 13.403 0 0 1 6.632-3.785 8.216 8.216 0 0 1 1.593-.165 4.97 4.97 0 0 1 2.876.822 9.114 9.114 0 0 1-1.803 1.09 12.792 12.792 0 0 0-5.953 5.953 8.899 8.899 0 0 1-1.99 2.808 8.933 8.933 0 0 1-2.81 1.991c-.78.362-1.52.809-2.203 1.333a6.614 6.614 0 0 1-.122-3.42zm16.517-4.307a13.402 13.402 0 0 1-3.78 6.627 13.403 13.403 0 0 1-6.632 3.785 5.8 5.8 0 0 1-4.476-.651 9.143 9.143 0 0 1 1.81-1.098 11.458 11.458 0 0 0 3.48-2.471 11.427 11.427 0 0 0 2.48-3.48 10.25 10.25 0 0 1 4.797-4.798c.78-.363 1.517-.81 2.198-1.334.34 1.11.383 2.289.123 3.42z" fill="#44220F"/><defs><linearGradient id="paint0_linear" x1="1.877" y1="107.012" x2="143.815" y2="101.991" gradientUnits="userSpaceOnUse"><stop stop-color="#F59E27"/><stop offset=".476" stop-color="#F59E27" stop-opacity=".622"/><stop offset=".856" stop-color="#F59E27" stop-opacity=".078"/><stop offset="1" stop-color="#F59E27" stop-opacity="0"/></linearGradient></defs></svg>
